X: 2
T: The Swaggering Jig
R: slip jig
M: 9/8
L: 1/8
K: Emin
c|BAG EGG EGG|BAG EFG A2c|BAG EGG EGG|BAG EFE D2:||:c|Bdd ded dBG|cee efe e2f|gfe dcB AGA|AGA BEE E2:|


Tune 661	Setting 13698

